X:1
T:Teu Santo Nome
T:Teu Santo Nome
T:Adoradores Novo Tempo
L:1/8
Q:1/4=68
M:4/4
K:G
V:1 bass nm="Trombone" snm="Tbn."
V:1
 z6"^Trombone" G,/F,/E,/D,/ | E,E,- E,4 G,/F,/E,/D,/ | B,,D,/D,/- D,4 G,/F,/E,/D,/ | %3
 E,D,/E,/- E,D,/E,/- E,D,/E,/- E,/D,B,,/- | B,,4 z3/2 B,,/ G,/F,/E,/D,/ | %5
 E,4 z3/2 B,,/ G,/F,/E,/D,/ | B,,D,/D,/- D,4 G,/F,/E,/D,/ | %7
 E,D,/E,/- E,D,/E,/- E,E,/F,/- F,/G,G,/- | G,8 | z CCB, A,B,-B,E,- | E, z E,2 F,G,-G,D,- | %11
 D,G,-G,A,- A,B,-B,D,- | D,F,-F,A,- A,F,- F,2 | z CCB, A,B,-B,E,- | E,E,-E,F,- F,G,-G,D,- | %15
 D,G,-G,A,- A,B,-B,D,- | D,F,-F,A,- A,F,- F,2 || E,E,E,F, G,B,-B,E,- | E, z E,E, F,G,-G,C- | %19
 CB,- B,2 G,G,DB,- | B,A,- A,6 | E,E,E,F, G,B,-B,E, | z E,E,E, E,F,G,C- | CB,- B,2 G,G,DB,- | %24
 B,A,- A,6 || z8 | z8 | z8 | z8 | z8 || z6 G,/F,/E,/D,/ | E,E,- E,4 G,/F,/E,/D,/ | %32
 B,,D,/D,/- D,4 G,/F,/E,/D,/ | E,D,/E,/- E,D,/E,/- E,D,/E,/- E,/D,B,,/- | %34
 B,,4 z3/2 B,,/ G,/F,/E,/D,/ | E,4 z3/2 B,,/ G,/F,/E,/D,/ | B,,D,/D,/- D,4 G,/F,/E,/D,/ | %37
 E,D,/E,/- E,D,/E,/- E,E,/F,/- F,/G,G,/- | G,8 | z CCB, A,B,-B,E,- | E, z E,2 F,G,-G,D,- | %41
 D,G,-G,A,- A,B,-B,D,- | D,F,-F,A,- A,F,- F,2 | z CCB, A,B,-B,E,- | E,E,-E,F,- F,G,-G,D,- | %45
 D,G,-G,A,- A,B,-B,D,- | D,F,-F,A,- A,F,- F,2 |: E,E,E,F, G,B,-B,E,- | E, z E,E, F,G,-G,C- | %49
 CB,- B,2 G,G,DB,- | B,A,- A,6 | E,E,E,F, G,B,-B,E, | z E,E,E, E,F,G,C- | CB,- B,2 G,G,DB,- | %54
 B,A,- A,6 :| z CCB, A,B,-B,E,- | E, z E,2 F,G,-G,D,- | D,G,-G,A,- A,B,-B,D,- | %58
 D,F,-F,A,- A,F,- F,2 | z CCB, A,B,-B,E,- | E,E,-E,F,- F,G,-G,D,- | D,G,-G,A,- A,B,-B,D,- | %62
 D,F,-F,A,- A,F,- F,2- | F,8 || E,E,E,F, G,B,-B,E,- | E, z E,E, F,G,-G,C- | CB,- B,2 G,G,DB,- | %67
 B,A,- A,6 | E,E,E,F, G,B,-B,E, | z E,E,E, E,F,G,C- | CB,- B,2 G,G,DB,- | B,A,- A,6 |] %72

